src/assets/home/logo-main.svg

<svg width="587" height="103" viewBox="0 0 587 103" fill="none" xmlns="http://www.w3.org/2000/svg">
<path d="M114.277 86L105.522 55.169H105.259C105.669 60.4198 105.874 64.4993 105.874 67.4077V86H95.6261V43.1938H111.027L119.957 73.5856H120.191L128.946 43.1938H144.376V86H133.748V67.232C133.748 66.2561 133.757 65.1727 133.777 63.9821C133.816 62.7914 133.953 59.8732 134.187 55.2276H133.923L125.286 86H114.277ZM184.606 69.3401C184.606 74.7666 183.142 79.0023 180.214 82.0473C177.305 85.0728 173.226 86.5856 167.975 86.5856C162.939 86.5856 158.928 85.0338 155.941 81.9302C152.974 78.8266 151.491 74.6299 151.491 69.3401C151.491 63.9333 152.945 59.7366 155.853 56.7501C158.781 53.7441 162.88 52.2411 168.151 52.2411C171.41 52.2411 174.29 52.934 176.788 54.3199C179.286 55.7058 181.209 57.6968 182.556 60.2929C183.922 62.8694 184.606 65.8852 184.606 69.3401ZM163.115 69.3401C163.115 72.19 163.495 74.3664 164.257 75.8694C165.018 77.3529 166.296 78.0946 168.092 78.0946C169.868 78.0946 171.118 77.3529 171.84 75.8694C172.582 74.3664 172.952 72.19 172.952 69.3401C172.952 66.5098 172.582 64.3724 171.84 62.928C171.098 61.4836 169.829 60.7613 168.034 60.7613C166.277 60.7613 165.018 61.4836 164.257 62.928C163.495 64.3529 163.115 66.4903 163.115 69.3401ZM212.099 86V67.9055C212.099 65.6998 211.777 64.0406 211.132 62.928C210.508 61.7959 209.493 61.2298 208.087 61.2298C206.155 61.2298 204.759 62.0008 203.901 63.5429C203.042 65.0849 202.612 67.7298 202.612 71.4775V86H191.164V52.8267H199.801L201.236 56.9258H201.91C202.886 55.3642 204.232 54.193 205.95 53.4123C207.687 52.6315 209.678 52.2411 211.923 52.2411C215.593 52.2411 218.443 53.3049 220.473 55.4325C222.522 57.5602 223.547 60.5564 223.547 64.4212V86H212.099ZM247.585 77.5383C249.127 77.5383 250.972 77.1577 253.119 76.3964V84.741C251.577 85.4047 250.103 85.8731 248.698 86.1464C247.312 86.4392 245.682 86.5856 243.808 86.5856C239.963 86.5856 237.191 85.6486 235.493 83.7748C233.795 81.8814 232.945 78.9828 232.945 75.0789V61.4055H228.934V56.7501L234.029 53.1488L236.986 46.1803H244.481V52.8267H252.621V61.4055H244.481V74.3176C244.481 76.4647 245.516 77.5383 247.585 77.5383ZM279.792 86V67.9055C279.792 63.455 278.475 61.2298 275.839 61.2298C273.966 61.2298 272.58 62.0204 271.682 63.6014C270.803 65.163 270.364 67.7688 270.364 71.419V86H258.916V40.4416H270.364V46.9123C270.364 49.8402 270.208 53.178 269.896 56.9258H270.423C271.516 55.2081 272.814 53.9979 274.317 53.2952C275.82 52.5925 277.567 52.2411 279.558 52.2411C283.267 52.2411 286.146 53.3147 288.195 55.4618C290.264 57.5894 291.299 60.5759 291.299 64.4212V86H279.792ZM310.535 86H299.087V40.4416H310.535V86ZM314.459 52.8267H326.522L332.143 71.8582C332.417 72.8536 332.602 74.0541 332.7 75.4595H332.934C333.09 74.1127 333.324 72.9317 333.637 71.9167L339.405 52.8267H351.087L337.97 88.1081C336.291 92.5976 334.222 95.7695 331.763 97.6238C329.323 99.4782 326.131 100.405 322.188 100.405C320.666 100.405 319.104 100.239 317.504 99.9076V90.9189C318.538 91.1531 319.719 91.2703 321.047 91.2703C322.062 91.2703 322.95 91.0751 323.711 90.6847C324.472 90.2943 325.136 89.738 325.702 89.0158C326.268 88.3131 326.873 87.1516 327.517 85.5315L314.459 52.8267Z" fill="#FFFDE7"/>
<path d="M371.319 43.1938H386.251C392.068 43.1938 396.382 44.0625 399.193 45.7997C402.023 47.5174 403.438 50.2013 403.438 53.8515C403.438 56.2524 402.823 58.3019 401.594 60.0001C400.364 61.6983 398.744 62.7914 396.733 63.2794V63.5721C399.388 64.2748 401.311 65.446 402.501 67.0856C403.692 68.7253 404.287 70.8529 404.287 73.4685C404.287 77.3529 402.823 80.4174 399.895 82.6622C396.987 84.8874 393.015 86 387.979 86H371.319V43.1938ZM382.884 59.6195H386.368C388.028 59.6195 389.306 59.2779 390.204 58.5947C391.121 57.9115 391.58 56.8965 391.58 55.5497C391.58 53.1488 389.765 51.9483 386.134 51.9483H382.884V59.6195ZM382.884 68.0811V77.0698H386.954C390.565 77.0698 392.371 75.5473 392.371 72.5023C392.371 71.0774 391.883 69.9843 390.907 69.223C389.95 68.4618 388.555 68.0811 386.72 68.0811H382.884ZM434.679 86L433.244 81.8716H432.571C431.614 83.3942 430.277 84.5653 428.56 85.3851C426.862 86.1854 424.861 86.5856 422.557 86.5856C418.907 86.5856 416.067 85.5315 414.037 83.4234C412.007 81.2958 410.992 78.2996 410.992 74.4347V52.8267H422.44V70.9505C422.44 73.1172 422.743 74.7568 423.348 75.8694C423.973 76.982 424.988 77.5383 426.393 77.5383C428.364 77.5383 429.77 76.7673 430.609 75.2253C431.449 73.6637 431.868 71.0383 431.868 67.3492V52.8267H443.316V86H434.679ZM461.528 86.5856C459.166 86.5856 457.097 85.9122 455.321 84.5653C453.564 83.2185 452.198 81.2373 451.222 78.6216C450.265 76.006 449.787 72.9512 449.787 69.4573C449.787 64.0699 450.87 59.8537 453.037 56.8087C455.204 53.7636 458.18 52.2411 461.967 52.2411C463.822 52.2411 465.442 52.612 466.828 53.3537C468.233 54.0955 469.511 55.3447 470.663 57.1014H470.897C470.527 54.5054 470.341 51.9093 470.341 49.3132V40.4416H481.877V86H473.24L470.78 81.8131H470.341C468.37 84.9947 465.432 86.5856 461.528 86.5856ZM466.213 77.5383C468.048 77.5383 469.336 76.9625 470.078 75.8108C470.839 74.6592 471.249 72.8829 471.307 70.482V69.5744C471.307 66.6465 470.888 64.5676 470.048 63.3379C469.209 62.0887 467.891 61.464 466.096 61.464C464.593 61.464 463.421 62.1765 462.582 63.6014C461.762 65.0068 461.352 67.0173 461.352 69.6329C461.352 72.2095 461.772 74.1712 462.611 75.5181C463.451 76.8649 464.651 77.5383 466.213 77.5383ZM521.111 52.8267V58.3605L516.573 60.0294C517.198 61.1615 517.51 62.4791 517.51 63.9821C517.51 67.5541 516.251 70.3259 513.733 72.2973C511.234 74.2688 507.496 75.2545 502.519 75.2545C501.289 75.2545 500.313 75.1765 499.591 75.0203C499.318 75.5278 499.181 76.006 499.181 76.455C499.181 77.0211 499.64 77.4602 500.557 77.7725C501.475 78.0653 502.675 78.2117 504.159 78.2117H509.663C517.1 78.2117 520.818 81.3446 520.818 87.6104C520.818 91.6509 519.091 94.7935 515.636 97.0383C512.201 99.283 507.369 100.405 501.143 100.405C496.439 100.405 492.808 99.6148 490.251 98.0337C487.713 96.4722 486.445 94.2177 486.445 91.2703C486.445 87.3078 488.904 84.7508 493.823 83.5991C492.808 83.1697 491.92 82.4767 491.159 81.5203C490.417 80.5638 490.046 79.6171 490.046 78.6802C490.046 77.6457 490.329 76.738 490.895 75.9572C491.461 75.1569 492.642 74.2102 494.438 73.1172C492.72 72.3559 491.364 71.1652 490.368 69.5451C489.392 67.925 488.904 65.9535 488.904 63.6307C488.904 60.0196 490.134 57.2186 492.593 55.2276C495.053 53.2366 498.566 52.2411 503.134 52.2411C503.739 52.2411 504.783 52.3094 506.267 52.4461C507.75 52.5827 508.843 52.7096 509.546 52.8267H521.111ZM496.107 90.1284C496.107 91.0653 496.614 91.8168 497.629 92.3829C498.644 92.9684 500.001 93.2612 501.699 93.2612C504.471 93.2612 506.686 92.9099 508.345 92.2072C510.024 91.524 510.863 90.6359 510.863 89.5428C510.863 88.6644 510.356 88.0398 509.341 87.6689C508.326 87.3176 506.872 87.1419 504.978 87.1419H500.499C499.269 87.1419 498.225 87.4249 497.366 87.991C496.526 88.5766 496.107 89.289 496.107 90.1284ZM499.708 63.6893C499.708 67.0856 500.889 68.7838 503.251 68.7838C504.344 68.7838 505.183 68.3642 505.769 67.5248C506.374 66.6855 506.677 65.4265 506.677 63.7478C506.677 60.3124 505.535 58.5947 503.251 58.5947C500.889 58.5947 499.708 60.2929 499.708 63.6893ZM542.192 86.5856C536.668 86.5856 532.374 85.1216 529.309 82.1937C526.264 79.2463 524.742 75.0593 524.742 69.6329C524.742 64.0309 526.157 59.7366 528.987 56.7501C531.818 53.7441 535.858 52.2411 541.109 52.2411C546.106 52.2411 549.961 53.5489 552.674 56.1645C555.407 58.7606 556.773 62.5083 556.773 67.4077V72.5023H536.307C536.385 74.3566 537.059 75.8108 538.327 76.8649C539.616 77.9189 541.363 78.446 543.568 78.446C545.579 78.446 547.423 78.2605 549.102 77.8897C550.8 77.4993 552.635 76.8454 554.607 75.928V84.1554C552.811 85.0728 550.956 85.7072 549.044 86.0586C547.131 86.4099 544.847 86.5856 542.192 86.5856ZM541.519 60.0294C540.172 60.0294 539.04 60.4588 538.122 61.3176C537.224 62.157 536.697 63.4843 536.541 65.2996H546.379C546.34 63.699 545.881 62.4205 545.003 61.464C544.144 60.5076 542.983 60.0294 541.519 60.0294ZM579.494 77.5383C581.036 77.5383 582.88 77.1577 585.028 76.3964V84.741C583.486 85.4047 582.012 85.8731 580.606 86.1464C579.221 86.4392 577.591 86.5856 575.717 86.5856C571.872 86.5856 569.1 85.6486 567.402 83.7748C565.703 81.8814 564.854 78.9828 564.854 75.0789V61.4055H560.843V56.7501L565.938 53.1488L568.895 46.1803H576.39V52.8267H584.53V61.4055H576.39V74.3176C576.39 76.4647 577.425 77.5383 579.494 77.5383Z" fill="#51D289"/>
<path d="M105.564 23H96.9988V7.85888H105.564V9.95088H99.474V14.0727H105.18V16.144H99.474V20.8976H105.564V23ZM111.135 17.1486L107.293 11.5458H110.069L112.678 15.5537L115.309 11.5458H118.064L114.211 17.1486L118.261 23H115.506L112.678 18.7124L109.861 23H107.107L111.135 17.1486ZM126.08 23.2071C124.63 23.2071 123.504 22.6859 122.703 21.6433H122.558C122.655 22.6099 122.703 23.1968 122.703 23.4039V28.0954H120.27V11.5458H122.237C122.293 11.7598 122.407 12.2707 122.579 13.0785H122.703C123.463 11.9186 124.602 11.3386 126.121 11.3386C127.55 11.3386 128.662 11.8565 129.456 12.8921C130.257 13.9278 130.657 15.3811 130.657 17.2522C130.657 19.1232 130.25 20.5835 129.435 21.6329C128.627 22.6824 127.509 23.2071 126.08 23.2071ZM125.489 13.3271C124.523 13.3271 123.815 13.6102 123.366 14.1763C122.924 14.7425 122.703 15.6469 122.703 16.8897V17.2522C122.703 18.6468 122.924 19.6583 123.366 20.2866C123.808 20.908 124.53 21.2187 125.531 21.2187C126.373 21.2187 127.022 20.8735 127.478 20.183C127.933 19.4926 128.161 18.5088 128.161 17.2315C128.161 15.9473 127.933 14.9772 127.478 14.3213C127.029 13.6585 126.366 13.3271 125.489 13.3271ZM138.487 23.2071C136.705 23.2071 135.311 22.6893 134.303 21.6537C133.302 20.6111 132.801 19.1785 132.801 17.3557C132.801 15.4847 133.267 14.0141 134.199 12.9439C135.131 11.8737 136.412 11.3386 138.041 11.3386C139.553 11.3386 140.748 11.7978 141.625 12.7161C142.502 13.6343 142.94 14.8978 142.94 16.5065V17.8218H135.307C135.342 18.9334 135.642 19.7895 136.208 20.3902C136.774 20.9839 137.572 21.2808 138.601 21.2808C139.277 21.2808 139.906 21.2187 140.486 21.0944C141.072 20.9632 141.701 20.7492 142.37 20.4523V22.4304C141.777 22.7135 141.176 22.9137 140.568 23.0311C139.961 23.1484 139.267 23.2071 138.487 23.2071ZM138.041 13.1821C137.268 13.1821 136.647 13.4272 136.177 13.9174C135.715 14.4076 135.438 15.1222 135.349 16.0612H140.548C140.534 15.1153 140.306 14.4007 139.864 13.9174C139.422 13.4272 138.815 13.1821 138.041 13.1821ZM155.782 23H153.338V15.9576C153.338 15.0739 153.158 14.4145 152.799 13.9795C152.447 13.5446 151.884 13.3271 151.111 13.3271C150.082 13.3271 149.33 13.6309 148.854 14.2384C148.377 14.846 148.139 15.8644 148.139 17.2936V23H145.705V11.5458H147.611L147.953 13.0475H148.077C148.422 12.502 148.912 12.0809 149.547 11.784C150.183 11.4871 150.887 11.3386 151.66 11.3386C154.408 11.3386 155.782 12.7368 155.782 15.533V23ZM166.863 19.7377C166.863 20.8562 166.456 21.7158 165.641 22.3165C164.827 22.9102 163.66 23.2071 162.141 23.2071C160.615 23.2071 159.389 22.9758 158.464 22.5132V20.4109C159.811 21.0323 161.064 21.343 162.224 21.343C163.722 21.343 164.471 20.8907 164.471 19.9863C164.471 19.6963 164.388 19.4546 164.222 19.2613C164.057 19.068 163.784 18.8678 163.404 18.6606C163.025 18.4535 162.496 18.2188 161.82 17.9564C160.501 17.4455 159.607 16.9346 159.137 16.4237C158.675 15.9127 158.444 15.2499 158.444 14.4352C158.444 13.4548 158.837 12.6953 159.624 12.1568C160.418 11.6114 161.495 11.3386 162.855 11.3386C164.202 11.3386 165.476 11.6114 166.677 12.1568L165.89 13.9899C164.654 13.479 163.615 13.2235 162.773 13.2235C161.488 13.2235 160.846 13.5894 160.846 14.3213C160.846 14.6803 161.012 14.9841 161.343 15.2327C161.682 15.4812 162.414 15.823 163.539 16.258C164.485 16.6239 165.172 16.9587 165.6 17.2625C166.028 17.5663 166.346 17.9184 166.553 18.3189C166.76 18.7124 166.863 19.1854 166.863 19.7377ZM174.506 23.2071C172.725 23.2071 171.33 22.6893 170.322 21.6537C169.321 20.6111 168.821 19.1785 168.821 17.3557C168.821 15.4847 169.287 14.0141 170.219 12.9439C171.151 11.8737 172.432 11.3386 174.061 11.3386C175.573 11.3386 176.768 11.7978 177.644 12.7161C178.521 13.6343 178.96 14.8978 178.96 16.5065V17.8218H171.327C171.362 18.9334 171.662 19.7895 172.228 20.3902C172.794 20.9839 173.592 21.2808 174.62 21.2808C175.297 21.2808 175.925 21.2187 176.505 21.0944C177.092 20.9632 177.72 20.7492 178.39 20.4523V22.4304C177.796 22.7135 177.196 22.9137 176.588 23.0311C175.98 23.1484 175.287 23.2071 174.506 23.2071ZM174.061 13.1821C173.288 13.1821 172.666 13.4272 172.197 13.9174C171.734 14.4076 171.458 15.1222 171.368 16.0612H176.567C176.554 15.1153 176.326 14.4007 175.884 13.9174C175.442 13.4272 174.834 13.1821 174.061 13.1821ZM189.42 19.7377C189.42 20.8562 189.012 21.7158 188.198 22.3165C187.383 22.9102 186.216 23.2071 184.697 23.2071C183.171 23.2071 181.946 22.9758 181.021 22.5132V20.4109C182.367 21.0323 183.62 21.343 184.78 21.343C186.278 21.343 187.027 20.8907 187.027 19.9863C187.027 19.6963 186.945 19.4546 186.779 19.2613C186.613 19.068 186.34 18.8678 185.961 18.6606C185.581 18.4535 185.053 18.2188 184.376 17.9564C183.057 17.4455 182.163 16.9346 181.694 16.4237C181.231 15.9127 181 15.2499 181 14.4352C181 13.4548 181.393 12.6953 182.181 12.1568C182.975 11.6114 184.052 11.3386 185.412 11.3386C186.758 11.3386 188.032 11.6114 189.233 12.1568L188.446 13.9899C187.21 13.479 186.171 13.2235 185.329 13.2235C184.045 13.2235 183.403 13.5894 183.403 14.3213C183.403 14.6803 183.568 14.9841 183.9 15.2327C184.238 15.4812 184.97 15.823 186.095 16.258C187.041 16.6239 187.728 16.9587 188.156 17.2625C188.584 17.5663 188.902 17.9184 189.109 18.3189C189.316 18.7124 189.42 19.1854 189.42 19.7377Z" fill="#FFE600"/>
<path d="M50 27.6C57.12 27.6 59.76 31 60 36H68.84C68.56 29.12 64.36 22.8 56 20.76V12H44V20.64C42.44 20.96 41 21.48 39.6 22.08L45.64 28.12C46.92 27.8 48.4 27.6 50 27.6ZM21.88 15.68L16.24 21.32L30 35.08C30 43.4 36.24 47.96 45.64 50.72L59.68 64.76C58.32 66.72 55.48 68.4 50 68.4C41.76 68.4 38.52 64.72 38.08 60H29.28C29.76 68.76 36.32 73.68 44 75.32V84H56V75.4C59.84 74.68 63.32 73.2 65.84 70.92L74.72 79.8L80.36 74.16L21.88 15.68Z" fill="white" fill-opacity="0.31"/>
</svg>

<svg width="587" height="103" fill="none" xmlns="http://www.w3.org/2000/svg"><path d="M114.277 86l-8.755-30.831h-.263c.41 5.25.615 9.33.615 12.239V86H95.626V43.194h15.401l8.93 30.392h.234l8.755-30.392h15.43V86h-10.628V67.232c0-.976.009-2.06.029-3.25.039-1.19.176-4.109.41-8.754h-.264L125.286 86h-11.009zm70.329-16.66c0 5.427-1.464 9.662-4.392 12.707-2.909 3.026-6.988 4.539-12.239 4.539-5.036 0-9.047-1.552-12.034-4.656-2.967-3.103-4.45-7.3-4.45-12.59 0-5.407 1.454-9.603 4.362-12.59 2.928-3.006 7.027-4.509 12.298-4.509 3.259 0 6.139.693 8.637 2.079 2.498 1.386 4.421 3.377 5.768 5.973 1.366 2.576 2.05 5.592 2.05 9.047zm-21.491 0c0 2.85.38 5.026 1.142 6.53.761 1.483 2.039 2.225 3.835 2.225 1.776 0 3.026-.742 3.748-2.226.742-1.503 1.112-3.679 1.112-6.529 0-2.83-.37-4.968-1.112-6.412-.742-1.444-2.011-2.167-3.806-2.167-1.757 0-3.016.723-3.777 2.167-.762 1.425-1.142 3.562-1.142 6.412zM212.099 86V67.906c0-2.206-.322-3.865-.967-4.978-.624-1.132-1.639-1.698-3.045-1.698-1.932 0-3.328.77-4.186 2.313-.859 1.542-1.289 4.187-1.289 7.935V86h-11.448V52.827h8.637l1.435 4.099h.674c.976-1.562 2.322-2.733 4.04-3.514 1.737-.78 3.728-1.17 5.973-1.17 3.67 0 6.52 1.063 8.55 3.19 2.049 2.128 3.074 5.124 3.074 8.99V86h-11.448zm35.486-8.462c1.542 0 3.387-.38 5.534-1.142v8.345c-1.542.664-3.016 1.132-4.421 1.405-1.386.293-3.016.44-4.89.44-3.845 0-6.617-.937-8.315-2.811-1.698-1.894-2.548-4.792-2.548-8.696V61.406h-4.011V56.75l5.095-3.601 2.957-6.969h7.495v6.647h8.14v8.579h-8.14v12.912c0 2.147 1.035 3.22 3.104 3.22zM279.792 86V67.906c0-4.451-1.317-6.676-3.953-6.676-1.873 0-3.259.79-4.157 2.371-.879 1.562-1.318 4.168-1.318 7.818V86h-11.448V40.442h11.448v6.47c0 2.928-.156 6.266-.468 10.014h.527c1.093-1.718 2.391-2.928 3.894-3.63 1.503-.703 3.25-1.055 5.241-1.055 3.709 0 6.588 1.074 8.637 3.22 2.069 2.128 3.104 5.115 3.104 8.96V86h-11.507zm30.743 0h-11.448V40.442h11.448V86zm3.924-33.173h12.063l5.621 19.031c.274.996.459 2.196.557 3.602h.234c.156-1.347.39-2.528.703-3.543l5.768-19.09h11.682L337.97 88.108c-1.679 4.49-3.748 7.661-6.207 9.516-2.44 1.854-5.632 2.781-9.575 2.781a23.07 23.07 0 01-4.684-.497v-8.99c1.034.235 2.215.352 3.543.352 1.015 0 1.903-.195 2.664-.585a5.997 5.997 0 001.991-1.67c.566-.702 1.171-1.863 1.815-3.484l-13.058-32.704z" fill="#FFFDE7"/><path d="M371.319 43.194h14.932c5.817 0 10.131.868 12.942 2.606 2.83 1.717 4.245 4.401 4.245 8.052 0 2.4-.615 4.45-1.844 6.148-1.23 1.698-2.85 2.791-4.861 3.28v.292c2.655.703 4.578 1.874 5.768 3.514 1.191 1.64 1.786 3.767 1.786 6.383 0 3.884-1.464 6.948-4.392 9.193-2.908 2.225-6.88 3.338-11.916 3.338h-16.66V43.194zm11.565 16.425h3.484c1.66 0 2.938-.341 3.836-1.024.917-.684 1.376-1.698 1.376-3.045 0-2.401-1.815-3.602-5.446-3.602h-3.25v7.672zm0 8.462v8.989h4.07c3.611 0 5.417-1.523 5.417-4.568 0-1.425-.488-2.518-1.464-3.279-.957-.761-2.352-1.142-4.187-1.142h-3.836zM434.679 86l-1.435-4.128h-.673c-.957 1.522-2.294 2.693-4.011 3.513-1.698.8-3.699 1.2-6.003 1.2-3.65 0-6.49-1.053-8.52-3.162-2.03-2.127-3.045-5.123-3.045-8.988V52.827h11.448V70.95c0 2.166.303 3.806.908 4.918.625 1.113 1.64 1.67 3.045 1.67 1.971 0 3.377-.772 4.216-2.314.84-1.561 1.259-4.187 1.259-7.876V52.827h11.448V86h-8.637zm26.849.586c-2.362 0-4.431-.674-6.207-2.02-1.757-1.347-3.123-3.329-4.099-5.944-.957-2.616-1.435-5.67-1.435-9.165 0-5.387 1.083-9.603 3.25-12.648s5.143-4.568 8.93-4.568c1.855 0 3.475.371 4.861 1.113 1.405.742 2.683 1.99 3.835 3.747h.234a55.131 55.131 0 01-.556-7.788v-8.871h11.536V86h-8.637l-2.46-4.187h-.439c-1.971 3.182-4.909 4.773-8.813 4.773zm4.685-9.048c1.835 0 3.123-.575 3.865-1.727.761-1.152 1.171-2.928 1.229-5.329v-.908c0-2.927-.419-5.006-1.259-6.236-.839-1.25-2.157-1.874-3.952-1.874-1.503 0-2.675.712-3.514 2.137-.82 1.406-1.23 3.416-1.23 6.032 0 2.577.42 4.538 1.259 5.885.84 1.347 2.04 2.02 3.602 2.02zm54.898-24.711v5.534l-4.538 1.668c.625 1.132.937 2.45.937 3.953 0 3.572-1.259 6.344-3.777 8.315-2.499 1.972-6.237 2.957-11.214 2.957-1.23 0-2.206-.078-2.928-.234-.273.508-.41.986-.41 1.435 0 .566.459 1.005 1.376 1.317.918.293 2.118.44 3.602.44h5.504c7.437 0 11.155 3.133 11.155 9.398 0 4.04-1.727 7.183-5.182 9.428-3.435 2.245-8.267 3.367-14.493 3.367-4.704 0-8.335-.79-10.892-2.371-2.538-1.562-3.806-3.816-3.806-6.764 0-3.962 2.459-6.52 7.378-7.67-1.015-.43-1.903-1.123-2.664-2.08-.742-.956-1.113-1.903-1.113-2.84 0-1.034.283-1.942.849-2.723.566-.8 1.747-1.747 3.543-2.84-1.718-.761-3.074-1.952-4.07-3.572-.976-1.62-1.464-3.591-1.464-5.914 0-3.611 1.23-6.412 3.689-8.403 2.46-1.991 5.973-2.987 10.541-2.987.605 0 1.649.068 3.133.205 1.483.137 2.576.264 3.279.38h11.565zm-25.004 37.301c0 .937.507 1.689 1.522 2.255 1.015.585 2.372.878 4.07.878 2.772 0 4.987-.351 6.646-1.054 1.679-.683 2.518-1.571 2.518-2.664 0-.879-.507-1.503-1.522-1.874-1.015-.351-2.469-.527-4.363-.527h-4.479c-1.23 0-2.274.283-3.133.849-.84.586-1.259 1.298-1.259 2.137zm3.601-26.439c0 3.397 1.181 5.095 3.543 5.095 1.093 0 1.932-.42 2.518-1.26.605-.838.908-2.097.908-3.776 0-3.436-1.142-5.153-3.426-5.153-2.362 0-3.543 1.698-3.543 5.094zm42.484 22.897c-5.524 0-9.818-1.464-12.883-4.392-3.045-2.948-4.567-7.135-4.567-12.561 0-5.602 1.415-9.896 4.245-12.883 2.831-3.006 6.871-4.509 12.122-4.509 4.997 0 8.852 1.308 11.565 3.923 2.733 2.597 4.099 6.344 4.099 11.244v5.094h-20.466c.078 1.855.752 3.309 2.02 4.363 1.289 1.054 3.036 1.581 5.241 1.581 2.011 0 3.855-.186 5.534-.556 1.698-.39 3.533-1.045 5.505-1.962v8.227a20.213 20.213 0 01-5.563 1.904c-1.913.35-4.197.527-6.852.527zm-.673-26.557c-1.347 0-2.479.43-3.397 1.289-.898.839-1.425 2.166-1.581 3.982h9.838c-.039-1.601-.498-2.88-1.376-3.836-.859-.956-2.02-1.435-3.484-1.435zm37.975 17.51c1.542 0 3.386-.381 5.534-1.143v8.345c-1.542.664-3.016 1.132-4.422 1.405-1.385.293-3.015.44-4.889.44-3.845 0-6.617-.937-8.315-2.811-1.699-1.894-2.548-4.792-2.548-8.696V61.406h-4.011V56.75l5.095-3.601 2.957-6.969h7.495v6.647h8.14v8.579h-8.14v12.912c0 2.147 1.035 3.22 3.104 3.22z" fill="#51D289"/><path d="M105.564 23h-8.565V7.859h8.565V9.95h-6.09v4.122h5.706v2.071h-5.706v4.754h6.09V23zm5.571-5.851l-3.842-5.603h2.776l2.609 4.008 2.631-4.008h2.755l-3.853 5.603 4.05 5.851h-2.755l-2.828-4.288L109.861 23h-2.754l4.028-5.851zm14.945 6.058c-1.45 0-2.576-.521-3.377-1.564h-.145c.097.967.145 1.554.145 1.76v4.692h-2.433v-16.55h1.967c.056.215.17.726.342 1.534h.124c.76-1.16 1.899-1.74 3.418-1.74 1.429 0 2.541.518 3.335 1.553.801 1.036 1.201 2.49 1.201 4.36 0 1.871-.407 3.332-1.222 4.38-.808 1.05-1.926 1.575-3.355 1.575zm-.591-9.88c-.966 0-1.674.283-2.123.85-.442.566-.663 1.47-.663 2.713v.362c0 1.395.221 2.406.663 3.035.442.621 1.164.932 2.165.932.842 0 1.491-.346 1.947-1.036.455-.69.683-1.674.683-2.951 0-1.285-.228-2.255-.683-2.91-.449-.663-1.112-.995-1.989-.995zm12.998 9.88c-1.782 0-3.176-.518-4.184-1.553-1.001-1.043-1.502-2.476-1.502-4.298 0-1.871.466-3.342 1.398-4.412.932-1.07 2.213-1.605 3.842-1.605 1.512 0 2.707.459 3.584 1.377.877.918 1.315 2.182 1.315 3.79v1.316h-7.633c.035 1.111.335 1.968.901 2.568.566.594 1.364.89 2.393.89.676 0 1.305-.061 1.885-.186a10.153 10.153 0 001.884-.642v1.978a7.455 7.455 0 01-1.802.601c-.607.117-1.301.176-2.081.176zm-.446-10.025c-.773 0-1.394.245-1.864.735-.462.49-.739 1.205-.828 2.144h5.199c-.014-.946-.242-1.66-.684-2.144-.442-.49-1.049-.735-1.823-.735zM155.782 23h-2.444v-7.042c0-.884-.18-1.543-.539-1.979-.352-.434-.915-.652-1.688-.652-1.029 0-1.781.304-2.257.911-.477.608-.715 1.626-.715 3.056V23h-2.434V11.546h1.906l.342 1.502h.124c.345-.546.835-.967 1.47-1.264.636-.297 1.34-.445 2.113-.445 2.748 0 4.122 1.398 4.122 4.194V23zm11.081-3.262c0 1.118-.407 1.978-1.222 2.579-.814.593-1.981.89-3.5.89-1.526 0-2.752-.231-3.677-.694v-2.102c1.347.621 2.6.932 3.76.932 1.498 0 2.247-.452 2.247-1.357 0-.29-.083-.531-.249-.725-.165-.193-.438-.393-.818-.6-.379-.208-.908-.442-1.584-.705-1.319-.51-2.213-1.021-2.683-1.532-.462-.511-.693-1.174-.693-1.989 0-.98.393-1.74 1.18-2.278.794-.546 1.871-.818 3.231-.818 1.347 0 2.621.272 3.822.818l-.787 1.833c-1.236-.511-2.275-.767-3.117-.767-1.285 0-1.927.366-1.927 1.098 0 .36.166.663.497.912.339.248 1.071.59 2.196 1.025.946.366 1.633.7 2.061 1.005.428.303.746.655.953 1.056.207.393.31.866.31 1.419zm7.643 3.47c-1.781 0-3.176-.519-4.184-1.554-1.001-1.043-1.501-2.476-1.501-4.298 0-1.871.466-3.342 1.398-4.412.932-1.07 2.213-1.605 3.842-1.605 1.512 0 2.707.459 3.583 1.377.877.918 1.316 2.182 1.316 3.79v1.316h-7.633c.035 1.111.335 1.968.901 2.568.566.594 1.364.89 2.392.89.677 0 1.305-.061 1.885-.186a10.16 10.16 0 001.885-.642v1.978a7.47 7.47 0 01-1.802.601c-.608.117-1.301.176-2.082.176zm-.445-10.026c-.773 0-1.395.245-1.864.735-.463.49-.739 1.205-.829 2.144h5.199c-.013-.946-.241-1.66-.683-2.144-.442-.49-1.05-.735-1.823-.735zm15.359 6.556c0 1.118-.408 1.978-1.222 2.579-.815.593-1.982.89-3.501.89-1.526 0-2.751-.231-3.676-.694v-2.102c1.346.621 2.599.932 3.759.932 1.498 0 2.247-.452 2.247-1.357 0-.29-.082-.531-.248-.725-.166-.193-.439-.393-.818-.6-.38-.208-.908-.442-1.585-.705-1.319-.51-2.213-1.021-2.682-1.532-.463-.511-.694-1.174-.694-1.989 0-.98.393-1.74 1.181-2.278.794-.546 1.871-.818 3.231-.818 1.346 0 2.62.272 3.821.818l-.787 1.833c-1.236-.511-2.275-.767-3.117-.767-1.284 0-1.926.366-1.926 1.098 0 .36.165.663.497.912.338.248 1.07.59 2.195 1.025.946.366 1.633.7 2.061 1.005.428.303.746.655.953 1.056.207.393.311.866.311 1.419z" fill="#FFE600"/><path d="M50 27.6c7.12 0 9.76 3.4 10 8.4h8.84c-.28-6.88-4.48-13.2-12.84-15.24V12H44v8.64c-1.56.32-3 .84-4.4 1.44l6.04 6.04c1.28-.32 2.76-.52 4.36-.52zM21.88 15.68l-5.64 5.64L30 35.08c0 8.32 6.24 12.88 15.64 15.64l14.04 14.04c-1.36 1.96-4.2 3.64-9.68 3.64-8.24 0-11.48-3.68-11.92-8.4h-8.8c.48 8.76 7.04 13.68 14.72 15.32V84h12v-8.6c3.84-.72 7.32-2.2 9.84-4.48l8.88 8.88 5.64-5.64-58.48-58.48z" fill="#fff" fill-opacity=".31"/></svg>
